resources/svg/logout.svg

<svg xmlns="http://www.w3.org/2000/svg" viewBox="0 0 15 15" fill="currentColor"><path fill-rule="evenodd" clip-rule="evenodd" d="M1 1L8 1V2L2 2L2 13H8V14H1L1 1ZM10.8536 4.14645L14.1932 7.48614L10.8674 11.0891L10.1326 10.4109L12.358 8L4 8V7L12.2929 7L10.1464 4.85355L10.8536 4.14645Z" fill="black"/></svg>

<svg xmlns="http://www.w3.org/2000/svg" viewBox="0 0 15 15" fill="currentColor"><path fill-rule="evenodd" clip-rule="evenodd" d="M1 1h7v1H2v11h6v1H1V1zm9.854 3.146l3.34 3.34-3.327 3.603-.734-.678L12.358 8H4V7h8.293l-2.147-2.146.708-.708z" fill="currentColor"/></svg>
